X: 12598
T: Farewell To The Tarpeys Of Arderry
R: jig
M: 6/8
K: Dmajor
A2f fef|ded B2A|B2e ede|edB ABA|
A2f fef|ded B2A|ABd ede|1 fdc dcB:|2 fdc dBc||
|:dBB fBB|dBB Bcd|cAA eAA|cAA ABc|
dBB fBB|dBB BcB|ABd ede|1 fdc dBc:|2 fdc dcB||

